svg/education/counter_fill.svg

<?xml version="1.0" encoding="UTF-8"?>
<svg width="24px" height="24px" viewBox="0 0 24 24" version="1.1" xmlns="http://www.w3.org/2000/svg" xmlns:xlink="http://www.w3.org/1999/xlink">
    <title>counter_fill</title>
    <g id="页面-1" stroke="none" stroke-width="1" fill="none" fill-rule="evenodd">
        <g id="counter_fill">
             <path d="M24,0 L24,24 L0,24 L0,0 L24,0 Z M12.5934901,23.257841 L12.5819402,23.2595131 L12.5108777,23.2950439 L12.4918791,23.2987469 L12.4918791,23.2987469 L12.4767152,23.2950439 L12.4056548,23.2595131 C12.3958229,23.2563662 12.3870493,23.2590235 12.3821421,23.2649074 L12.3780323,23.275831 L12.360941,23.7031097 L12.3658947,23.7234994 L12.3769048,23.7357139 L12.4804777,23.8096931 L12.4953491,23.8136134 L12.4953491,23.8136134 L12.5071152,23.8096931 L12.6106902,23.7357139 L12.6232938,23.7196733 L12.6232938,23.7196733 L12.6266527,23.7031097 L12.609561,23.275831 C12.6075724,23.2657013 12.6010112,23.2592993 12.5934901,23.257841 L12.5934901,23.257841 Z M12.8583906,23.1452862 L12.8445485,23.1473072 L12.6598443,23.2396597 L12.6498822,23.2499052 L12.6498822,23.2499052 L12.6471943,23.2611114 L12.6650943,23.6906389 L12.6699349,23.7034178 L12.6699349,23.7034178 L12.678386,23.7104931 L12.8793402,23.8032389 C12.8914285,23.8068999 12.9022333,23.8029875 12.9078286,23.7952264 L12.9118235,23.7811639 L12.8776777,23.1665331 C12.8752882,23.1545897 12.8674102,23.1470016 12.8583906,23.1452862 L12.8583906,23.1452862 Z M12.1430473,23.1473072 C12.1332178,23.1423925 12.1221763,23.1452606 12.1156365,23.1525954 L12.1099173,23.1665331 L12.0757714,23.7811639 C12.0751323,23.7926639 12.0828099,23.8018602 12.0926481,23.8045676 L12.108256,23.8032389 L12.3092106,23.7104931 L12.3186497,23.7024347 L12.3186497,23.7024347 L12.3225043,23.6906389 L12.340401,23.2611114 L12.337245,23.2485176 L12.337245,23.2485176 L12.3277531,23.2396597 L12.1430473,23.1473072 Z" id="MingCute" fill-rule="nonzero"></path>
            <path d="M19,3 C20.0543909,3 20.9181678,3.81587733 20.9945144,4.85073759 L21,5 L21,19 C21,20.0543909 20.18415,20.9181678 19.1492661,20.9945144 L19,21 L5,21 C3.94563773,21 3.08183483,20.18415 3.00548573,19.1492661 L3,19 L3,5 C3,3.94563773 3.81587733,3.08183483 4.85073759,3.00548573 L5,3 L19,3 Z M6.37864,13.3787 C5.98812,13.7692 5.98812,14.4024 6.37864,14.7929 L7.08575,15.5 L6.37864,16.2071 C5.98812,16.5976 5.98812,17.2308 6.37864,17.6213 C6.76917,18.0118 7.40233,18.0118 7.79286,17.6213 L8.49996,16.9142 L9.20707,17.6213 C9.5976,18.0118 10.2308,18.0118 10.6213,17.6213 C11.0118,17.2308 11.0118,16.5976 10.6213,16.2071 L9.91418,15.5 L10.6213,14.7929 C11.0118,14.4024 11.0118,13.7692 10.6213,13.3787 C10.2308,12.9882 9.5976,12.9882 9.20707,13.3787 L8.49996,14.0858 L7.79286,13.3787 C7.40233,12.9882 6.76917,12.9882 6.37864,13.3787 Z M17,15.75 L14,15.75 C13.4477,15.75 13,16.1977 13,16.75 C13,17.26285 13.386027,17.6855092 13.8833761,17.7432725 L14,17.75 L17,17.75 C17.5523,17.75 18,17.3023 18,16.75 C18,16.23715 17.613973,15.8144908 17.1166239,15.7567275 L17,15.75 Z M17,13.25 L14,13.25 C13.4477,13.25 13,13.6977 13,14.25 C13,14.76285 13.386027,15.1855092 13.8833761,15.2432725 L14,15.25 L17,15.25 C17.5523,15.25 18,14.8023 18,14.25 C18,13.73715 17.613973,13.3144908 17.1166239,13.2567275 L17,13.25 Z M15.5,6.5 C14.9477,6.5 14.5,6.94772 14.5,7.5 L14.5,8 L14,8 C13.4477,8 13,8.44772 13,9 C13,9.55228 13.4477,10 14,10 L14.5,10 L14.5,10.5 C14.5,11.0523 14.9477,11.5 15.5,11.5 C16.0523,11.5 16.5,11.0523 16.5,10.5 L16.5,10 L17,10 C17.5523,10 18,9.55228 18,9 C18,8.44772 17.5523,8 17,8 L16.5,8 L16.5,7.5 C16.5,6.94772 16.0523,6.5 15.5,6.5 Z M10,8 L7,8 C6.44772,8 6,8.44772 6,9 C6,9.51283143 6.38604429,9.93550653 6.88337975,9.9932722 L7,10 L10,10 C10.5523,10 11,9.55228 11,9 C11,8.48716857 10.613973,8.06449347 10.1166239,8.0067278 L10,8 Z" id="形状" fill="#09244B" fill-rule="nonzero"></path>
        </g>
    </g>
</svg>

<svg xmlns="http://www.w3.org/2000/svg" width="24" height="24"><g fill="none" fill-rule="evenodd"><path d="M24 0v24H0V0h24ZM12.593 23.258l-.011.002-.071.035-.02.004-.014-.004-.071-.035c-.01-.004-.019-.001-.024.005l-.004.01-.017.428.005.02.01.013.104.074.015.004.012-.004.104-.074.012-.016.004-.017-.017-.427c-.002-.01-.009-.017-.017-.018Zm.265-.113-.013.002-.185.093-.01.01-.003.011.018.43.005.012.008.007.201.093c.012.004.023 0 .029-.008l.004-.014-.034-.614c-.003-.012-.01-.02-.02-.022Zm-.715.002a.023.023 0 0 0-.027.006l-.006.014-.034.614c0 .012.007.02.017.024l.015-.002.201-.093.01-.008.004-.011.017-.43-.003-.012-.01-.01-.184-.092Z"/><path fill="#09244B" fill-rule="nonzero" d="M19 3a2 2 0 0 1 1.995 1.85L21 5v14a2 2 0 0 1-1.85 1.995L19 21H5a2 2 0 0 1-1.995-1.85L3 19V5a2 2 0 0 1 1.85-1.995L5 3h14ZM6.379 13.379a1 1 0 0 0 0 1.414l.707.707-.707.707a1 1 0 1 0 1.414 1.414l.707-.707.707.707a1 1 0 0 0 1.414-1.414l-.707-.707.707-.707a1 1 0 0 0-1.414-1.414l-.707.707-.707-.707a1 1 0 0 0-1.414 0ZM17 15.75h-3a1 1 0 0 0-.117 1.993l.117.007h3a1 1 0 0 0 .117-1.993L17 15.75Zm0-2.5h-3a1 1 0 0 0-.117 1.993l.117.007h3a1 1 0 0 0 .117-1.993L17 13.25ZM15.5 6.5a1 1 0 0 0-1 1V8H14a1 1 0 1 0 0 2h.5v.5a1 1 0 1 0 2 0V10h.5a1 1 0 1 0 0-2h-.5v-.5a1 1 0 0 0-1-1ZM10 8H7a1 1 0 0 0-.117 1.993L7 10h3a1 1 0 0 0 .117-1.993L10 8Z"/></g></svg>
